teeny/solid/dollar.svg

<svg width="15" height="15" viewBox="0 0 15 15" fill="none" xmlns="http://www.w3.org/2000/svg">
<path fill-rule="evenodd" clip-rule="evenodd" d="M7 1V0H8V1H9.5C11.433 1 13 2.567 13 4.5H12C12 3.11929 10.8807 2 9.5 2H5.5C4.11929 2 3 3.11929 3 4.5C3 5.88071 4.11929 7 5.5 7H9.5C11.433 7 13 8.567 13 10.5C13 12.433 11.433 14 9.5 14H8V15H7V14H5.5C3.567 14 2 12.433 2 10.5H3C3 11.8807 4.11929 13 5.5 13H9.5C10.8807 13 12 11.8807 12 10.5C12 9.11929 10.8807 8 9.5 8H5.5C3.567 8 2 6.433 2 4.5C2 2.567 3.567 1 5.5 1H7Z" fill="black"/>
</svg>

<svg viewBox="0 0 15 15" xmlns="http://www.w3.org/2000/svg"><path fill-rule="evenodd" d="M7 1V0h1v1h1.5C11.43 1 13 2.56 13 4.5h-1C12 3.11 10.88 2 9.5 2h-4C4.11 2 3 3.11 3 4.5 3 5.88 4.11 7 5.5 7h4c1.93 0 3.5 1.56 3.5 3.5 0 1.93-1.57 3.5-3.5 3.5H8v1H7v-1H5.5C3.56 14 2 12.43 2 10.5h1C3 11.88 4.11 13 5.5 13h4c1.38 0 2.5-1.12 2.5-2.5C12 9.11 10.88 8 9.5 8h-4C3.56 8 2 6.43 2 4.5 2 2.56 3.56 1 5.5 1H7Z"/></svg>
